video-3d.svg

<svg fill="currentColor" viewBox="0 0 24 24"><path d="M5 7h4a2 2 0 0 1 2 2v6a2 2 0 0 1-2 2H5v-2h4v-2H6v-2h3V9H5zm8 0h3a3 3 0 0 1 3 3v4a3 3 0 0 1-3 3h-3zm3 8a1 1 0 0 0 1-1v-4a1 1 0 0 0-1-1h-1v6z"/></svg>

<svg  viewBox="0 0 24 24" fill="currentColor"><path  d="M5,7H9A2,2 0 0,1 11,9V15A2,2 0 0,1 9,17H5V15H9V13H6V11H9V9H5V7M13,7H16A3,3 0 0,1 19,10V14A3,3 0 0,1 16,17H13V7M16,15A1,1 0 0,0 17,14V10A1,1 0 0,0 16,9H15V15H16Z"/></svg>
